X: 27896
T: Mountain Lark, The
R: reel
M: 4/4
K: Edorian
E2BA Bdef|defd AFDF|E2BA Bdef|dBAF BEED|
E2BA Bdef|defd AFDF|E2BA Bdef|gfed Beed||
eB~B2 efge|f2af bfaf|eB~B2 efge|fedf e2gf|
eB~B2 efge|f2af bfaf|g2fg egfe|dBAF BFAF||

